src/svg/git-pull-request.svg

<svg height="16" width="12" xmlns="http://www.w3.org/2000/svg" viewBox="0 0 12 16">
  <path d="M11 11.28c0-1.73 0-6.28 0-6.28-0.03-0.78-0.34-1.47-0.94-2.06s-1.28-0.91-2.06-0.94c0 0-1.02 0-1 0V0L4 3l3 3V4h1c0.27 0.02 0.48 0.11 0.69 0.31s0.3 0.42 0.31 0.69v6.28c-0.59 0.34-1 0.98-1 1.72 0 1.11 0.89 2 2 2s2-0.89 2-2c0-0.73-0.41-1.38-1-1.72z m-1 2.92c-0.66 0-1.2-0.55-1.2-1.2s0.55-1.2 1.2-1.2 1.2 0.55 1.2 1.2-0.55 1.2-1.2 1.2zM4 3c0-1.11-0.89-2-2-2S0 1.89 0 3c0 0.73 0.41 1.38 1 1.72 0 1.55 0 5.56 0 6.56-0.59 0.34-1 0.98-1 1.72 0 1.11 0.89 2 2 2s2-0.89 2-2c0-0.73-0.41-1.38-1-1.72V4.72c0.59-0.34 1-0.98 1-1.72z m-0.8 10c0 0.66-0.55 1.2-1.2 1.2s-1.2-0.55-1.2-1.2 0.55-1.2 1.2-1.2 1.2 0.55 1.2 1.2z m-1.2-8.8c-0.66 0-1.2-0.55-1.2-1.2s0.55-1.2 1.2-1.2 1.2 0.55 1.2 1.2-0.55 1.2-1.2 1.2z" />
</svg>

<?xml version="1.0" encoding="UTF-8" standalone="no"?>
<svg width="12px" height="16px" viewBox="0 0 12 16" version="1.1" xmlns="http://www.w3.org/2000/svg" xmlns:xlink="http://www.w3.org/1999/xlink">
    <!-- Generator: Sketch 3.7.1 (28215) - http://www.bohemiancoding.com/sketch -->
    <title>git-pull-request</title>
    <desc>Created with Sketch.</desc>
    <defs></defs>
    <g id="Octicons" stroke="none" stroke-width="1" fill="none" fill-rule="evenodd">
        <g id="git-pull-request" fill="#000000">
            <path d="M11,11.28 L11,5 C10.97,4.22 10.66,3.53 10.06,2.94 C9.46,2.35 8.78,2.03 8,2 L7,2 L7,0 L4,3 L7,6 L7,4 L8,4 C8.27,4.02 8.48,4.11 8.69,4.31 C8.9,4.51 8.99,4.73 9,5 L9,11.28 C8.41,11.62 8,12.26 8,13 C8,14.11 8.89,15 10,15 C11.11,15 12,14.11 12,13 C12,12.27 11.59,11.62 11,11.28 L11,11.28 Z M10,14.2 C9.34,14.2 8.8,13.65 8.8,13 C8.8,12.35 9.35,11.8 10,11.8 C10.65,11.8 11.2,12.35 11.2,13 C11.2,13.65 10.65,14.2 10,14.2 L10,14.2 Z M4,3 C4,1.89 3.11,1 2,1 C0.89,1 0,1.89 0,3 C0,3.73 0.41,4.38 1,4.72 L1,11.28 C0.41,11.62 0,12.26 0,13 C0,14.11 0.89,15 2,15 C3.11,15 4,14.11 4,13 C4,12.27 3.59,11.62 3,11.28 L3,4.72 C3.59,4.38 4,3.74 4,3 L4,3 Z M3.2,13 C3.2,13.66 2.65,14.2 2,14.2 C1.35,14.2 0.8,13.65 0.8,13 C0.8,12.35 1.35,11.8 2,11.8 C2.65,11.8 3.2,12.35 3.2,13 L3.2,13 Z M2,4.2 C1.34,4.2 0.8,3.65 0.8,3 C0.8,2.35 1.35,1.8 2,1.8 C2.65,1.8 3.2,2.35 3.2,3 C3.2,3.65 2.65,4.2 2,4.2 L2,4.2 Z" id="Shape"></path>
        </g>
    </g>
</svg>
